X:1
T:If pity range with beauty - Kirbye
T:James Gibb editions
T:#
%%score { 1 | 2 } 3 4 5
L:1/8
Q:1/4=102
M:4/4
K:F
V:1 treble nm="Soprano I" snm="S"
V:2 treble 
V:3 treble nm="Alto" snm="A"
V:4 treble-8 nm="Tenor" snm="T"
V:5 bass nm="Bass" snm="B"
V:1
 d4 d3"^If pity range with beauty" d x4 | d4 c2 (d2- | d2 c2) d4- | %3
w: If pi- ty|range with beau\-|* * ty,|
 d4 z2"^George Kirbye\n(1565-1634)" d2 | ^c3 d e2 f2 | d8 | x8 |[M:4/4] ^c4 z2 e2 | f2 e2 d2 f2 | %9
w: * if|pi- ty range with|beau-||ty Then|may I be as-|
 (e2 d4 ^c2) | d4 z2 A2 | B2 A2 G2 F2 | E4 D4 | z4 z2 d2 | d2 c2 B3 A | G4 F4 | z4 z2 f2 | %17
w: sur\- * *|ed, then|may I be as-|sur- ed|That|what my harm pro-|cur- ed|Will|
 B2 c2 d2 G2 | d8 | d4 G4 | _B6 B2 | A6 B2 | G8 | ^F4 z2 A2 | (c3 B/A/) G2 A2 | (F2 G2) A4 | z8 | %27
w: yield me help of|du-|ty: If|pi- ty|range with|beau-|ty, if|pi- ty * range with|beau\- * ty||
 z2 A2 B2 A2 | G6 F2 | (=E2 F2 E4) | F8 | z4 z2 d2 | _e2 d2 c2 B2 | A4 G4- | G4 z4 | z4 z2 d2 | %36
w: Then may I|be as-|sur\- * *|ed,|then|may I be as-|sur- ed||That|
 d2 c2 B3 A | G4 F2 f2 | f2 e2 d3 c | B4 A4 | z8 | z2 c2 F2 G2 | A2 D2 A4 | G8 | _B4 A3 G | %45
w: what my harm pro-|cur- ed, that|what my harm pro-|cur- ed||Will yield me|help of du-|ty:|For wrong- ful|
 A2 B4 A2 | B4 z2 d2 | c3 c c2 d2 | _e4 d2 f2 | _e2 c2 d4 | z4 z2 B2 | A2 G2 ^F2 A2 | B3 B F2 G2 | %53
w: she was ne-|ver, for|wrong- ful she was|ne- ver. Then|why should I,|then|why should I still|in des- pair per-|
 E8 | ^F4 z2 B2 | A3 G A2 B2- | B2 A2 B4 |[M:4/4] z4 z2 f2 | _e2 c2 d2 d2 | %59
w: sev-|er? For|wrong- ful she was|* ne- ver.|Then|why should I still|
[Q:1/4=100] _e6[Q:1/4=97] e2 |[Q:1/4=95] _e4[Q:1/4=93] e4 |[Q:1/4=90] d8 |[Q:1/4=88] d8 |] %63
w: in des-|pair per-|sev-|er.|
V:2
 z4 B4 x4 | A3 G A2 B2 | G4 ^F4 | A4 A3 A | A4 G2 (A2- | A2 GF G4) | x8 |[M:4/4] A8 | z2 A2 B2 A2 | %9
w: If|pi- ty range with|beau- ty,|if pi- ty|range with beau\-|||ty|Then may I|
 G2 F2 E4 | D8 | z8 | z4 z2 d2 | d2 c2 B3 A | G4 F2 d2 | d2 c2 B3 A | G4 F4 | z2 f2 f2 _e2 | %18
w: be as- sur-|ed||That|what my harm pro-|cur- ed, that|what my harm pro-|cur- ed|Will yield me|
 d2 B2 A4 | =B8 | z8 | z8 | z8 | z2 d2 =f3 f | e6 f2 | d4 ^c4 | z8 | z4 z2 d2 | _e2 d2 c2 B2 | A8 | %30
w: help of du-|ty:||||if pi- ty|range with|beau- ty||Then|may I be as-|sur-|
 A2 A2 B2 A2 | G2 F2 G4 | G4 z4 | z8 | z4 z2 d2 | d2 c2 B3 A | G4 F2 d2 | d2 c2 B3 A | B2 G2 z4 | %39
w: ed, then may I|be as- sur-|ed||That|what my harm pro-|cur- ed, that|what my harm pro-|cur- ed,|
 z4 z2 f2 | B2 c2 d2 A2 | B2 G2 z2 d2 | d8 | =B8 | d4 c3 c | c2 d2 _e4 | d4 z2 B2 | A3 G A2 B2 | %48
w: Will|yield me help of|du- ty, of|du-|ty:|For wrong- ful|she was ne-|ver, for|wrong- ful she was|
 c4 F4 | z4 z2 f2 | _e2 c2 d4 | z4 z2 d2 | d3 d B2 B2 | A8 | A4 d4 | c3 c c2 d2 | _e4 d2 f2 | %57
w: ne- ver.|Then|why should I|still|in des- pair per-|sev-|ver? For|wrong- ful she was|ne- ver. Then|
[M:4/4] _e2 c2 d4 | z4 z2 B2 | B6 B2 | B4 c4 | A8 | =B8 |] %63
w: why should I|still|in des-|pair per-|sev-|er.|
V:3
 z4 G4 x4 | D3 E F2 B,2 | _E4 D4- | D2 D2 =F3 F | E6 C2 | D8 | x8 |[M:4/4] E2 E2 F2 E2 | %8
w: If|pi- ty range with|beau- ty,|* if pi- ty|range with|beau-||ty Then may I|
 D2 ^C2 (D4 | G,4) A,4 | z2 A2 B2 A2 | G2 F2 (E2 D2- | D2 ^C2) D4 | z4 z2 B,2 | B,2 C2 D2 F2 | %15
w: be as- sur\-|* ed,|then may I|be as- sur\- *|* * ed|That|what my harm pro-|
 (FE/D/ E2) F4 | z4 z2 F2 | G2 A2 (B3 A/G/ | ^F2) G4 F2 | G8 | z4 G4 | F3 (E/D/) C2 D2 | (B,4 C4) | %23
w: cur\- * * * ed|Will|yield me help * *|* of du-|ty:|If|pi- ty * range with|beau\- *|
 D4 z2 =F2 | A3 (G/F/) E2 C2 | D4 E4 | z2 A2 B2 A2 | G2 ^F2 G2 D2 | z2 D2 _E2 D2 | ^C2 D4 C2 | D8 | %31
w: ty, if|pi- ty * range with|beau- ty|Then may I|be as- sur- ed,|then may I|be as- sur-|ed|
 z8 | z8 | z4 z2 G2 | G2 F2 _E2 D2 | F4 F2 B,2 | B,2 C2 D2 F2 | (FE/D/ E2) F2 B,2 | B,2 C2 D2 F2 | %39
w: ||That|what my harm pro-|cur- ed, that|what my harm pro-|cur\- * * * ed, that|what my harm pro-|
 (FE/D/ E2) F2 F2 | G2 A2 B2 F2 | F2 _E2 (D3 =E | ^F2) G2 D4 | D8 | _B,4 F3 E | F2 D2 C4 | %46
w: cur\- * * * ed Will|yield me help, will|yield me help *|* of du-|ty:|For wrong- ful|she was ne-|
 B,4 z2 F2 | F3 G F2 F2 | _E2 C2 z2 F2 | G2 A2 B2 B2 | G3 G ^F2 D2 | C2 G,2 A,2 D2 | F3 F D2 E2 | %53
w: ver, for|wrong- ful she was|ne- ver. Then|why should I, then|why should I, then|why should I still|in des- pair per-|
 (^C2 D4 C2) | D4 z2 F2 | F3 G F2 F2 | _E2 C2 z2 F2 |[M:4/4] G2 A2 B2 B2 | G3 G ^F2 G2 | G6 G2 | %60
w: sev\- * *|er? For|wrong- ful she was|ne- ver. Then|why should I, then|why should I still|in des-|
 G6 A2 | (^F2 G4 F2) | G8 |] %63
w: pair per-|sev\- * *|er.|
V:4
 z8 x4 | z8 | z8 | z4 d4 | A3 B =c2 F2 | B8 | x8 |[M:4/4][K:treble-8] A8 | z8 | z4 z2 A2 | %10
w: |||If|pi- ty range with|beau-||ty||Then|
 B2 A2 G2 ^F2 | G8 | A4 z2 B2 | B2 c2 d2 f2 | (fe/d/ e2) f2 B2 | B2 c2 d2 f2 | (fe/d/ e2) f4 | %17
w: may I be as-|sur-|ed That|what my harm pro-|cur\- * * * ed, that|what my harm pro-|cur\- * * * ed|
 z2 f2 B2 c2 | d2 G2 d4 | G8 | z4 d4 | d3 (c/B/) A2 F2 | G8 | A4 z2 d2 | A3 B c2 F2 | B4 A4 | %26
w: Will yield me|help of du-|ty:|If|pi- ty * range with|beau-|ty, if|pi- ty range with|beau- ty|
 z4 z2 A2 | B2 A2 G2 ^F2 | G8 | A8 | z8 | z2 d2 _e2 d2 | c2 B2 (A2 G2- | G2 ^F2) G4- | G4 z2 B2 | %35
w: Then|may I be as-|sur-|ed,||then may I|be as- sur- *|* * ed|* That|
 B2 c2 d2 f2 | (fe/d/ e2) f2 B2 | B2 c2 d2 f2 | (fe/d/ e2) f4 | z8 | z2 f2 B2 c2 | d2 G2 d2 B2 | %42
w: what my harm pro-|cur\- * * * ed, that|what my harm pro-|cur\- * * * ed||Will yield me|help of du- ty,|
 A2 (G4 ^F2) | G8 | z8 | z8 | z4 z2 F2- | F2 c3 B B2- | B2 A2 B2 F2 | z4 z2 B2 | c2 _e2 d2 =f2 | %51
w: of du\- *|ty:|||For|* wrong- ful she|* was ne- ver.|Then|why should I, then|
 _e2 c2 d2 d2 | B3 B B2 G2 | A8 | d4 z2 B2 | c3 c c2 B2 | c4 F4 |[M:4/4][K:treble-8] z4 z2 d2 | %58
w: why should I still|in des- pair per-|sev-|er? For|wrong- ful she was|ne- ver.|Then|
 c2 G2 A2 B2 | B6 B2 | G4 G4 | d8 | d8 |] %63
w: why should I still|in des-|pair per-|sev-|er.|
V:5
 z12 | z8 | z8 | z8 | z8 | z8 |[M:4/4] z8 | z8 | z8 | z8 | z8 | z8 | z8 | z8 | z8 | z8 | z8 | z8 | %18
w: ||||||||||||||||||
 z8 | z4 G,4 | D,3 E, F,2 B,,2 | _E,8 | D,8 | z8 | z4 z2 A,2 | B,2 A,2 G,2 ^F,2 | G,2 D,2 z4 | z8 | %28
w: |If|pi- ty range with|beau-|ty||Then|may I be as-|sur- ed,||
 z8 | z4 z2 D,2 | _E,2 D,2 C,2 =B,,2 | C,8 | D,4 z2 _E,2 | _E,2 F,2 G,2 B,2 | (B,A,/G,/ A,2) B,4 | %35
w: |then|may I be as-|sur-|ed That|what my harm pro-|cur\- * * * ed,|
 z8 | z4 z2 D2 | D2 C2 B,3 A, | G,4 F,4 | z4 z2 F,2 | B,,2 C,2 D,2 G,,2 | D,8 | G,,8 | z8 | z8 | %45
w: |that|what my harm pro-|cur- ed|Will|yield me help of|du-|ty:|||
 z4 B,,4 | F,3 E, F,2 D,2 | C,4 B,,4 | z8 | z4 z2 B,,2 | C,2 _E,2 D,4 | z8 | z8 | z4 B,,4 | %54
w: For|wrong- ful she was|ne- ver.||Then|why should I|||For|
 F,3 E, F,2 D,2 | C,4 B,,4 |[M:4/4] z4 z2 B,,2 | C,2 _E,2 D,2 G,2 | _E,6 E,2 | _E,4 C,4 | D,8 | %61
w: wrong- ful she was|ne- ver.|Then|why should I still|in des-|pair per-|sev-|
 G,8 | x8 |] %63
w: er.||

